X: 15362
T: Glandyfi
R: jig
M: 6/8
K: Gmajor
|:DEF|~G2G ~G2G|ded BAG|~A2A AGA|BAG E2D|
~G2G ~G2G|ded BAG|1 ~e2d BGA|G3:|2 ede BAF|~G3||
|:ABd|~e2d ~e2d|e2f g2d|~e2d BAG|BAG E2D|
~G2G ~G2G|ded BAG|1 ~e2d BGA|G3:|2 ede BAF|~G3||

